
// rosetta comet

play{l=LFNoise2;o=0.3;FreeVerb.ar(LPF.ar(SinOsc.ar(l.ar(o).range(666,1e3))*Saw.ar(17),300),l.ar(o))!2}
 
#cometlanding http://www.abc.net.au/science/articles/2014/11/12/4126840.htm

